X:1
T:When the Morning peeps forth
T:When the Morning peeps forth
T:Cheese
C:Cheese
%%score ( 1 2 )
L:1/8
Q:1/4=104
M:3/4
K:Eb
V:1 treble 
V:2 treble 
V:1
"^Moderato" EF | G2 G2 A2 | B2 c2 B2 | c2 f2 d2 | e2 z2 de | f2 B2 B2 | e2 z2 de | f2 B2 B2 | %8
w: When the|Morn- ing peeps|forth and the|ze- phyrs cool|gale, car- ries|frag- rance and|health o- ver|Moun- tain and|
 e2 z2 de | f2 d2 B2 | e2 d2 c2 | B2 c2 =A2 | B2 x4 | b2 d'2 c'2 | b2 B2 BB | e2 B2 A2 | G2 z2 ed | %17
w: Dale, car- ries|frag- rance and|health o- ver|Moun- tain and|Dale,|* * Up|ye Nymphs and ye|Swains, and to-||
 c2 ed c=B | c2 z2 z d | e2 BG E2 | FA c2 BA | G2 B2 =A2 | B2 z2 z d | e2 BA GF | G2 E2 E2 | %25
w: ge- ther * we'll *|rove, up|Hill down * the|Val- * ley by *|Thick- et or|grove, then|fol- low * with *|me, where the|
 c2 f2 e2 | d2 z2 de | f2 B2 B2 | e4 dc | B2 B2 B2 | B6- | B4 B2 | G2 EF GE | c2 FG AF | B2 BA GF | %35
w: Wel- kin re-|sounds with the|Notes of the|Horn, and the|cry of the|Hounds|* then|fol- low * with *|me where * the *|Wel- kin * re- *|
 E3 z2 eB | e2 ed c=B | c2 c_B AG | A2 F2 B2 | E2 x4 | agfedf | e2 e2 e2 | e4!D.C.! |] %43
w: sounds with the|Notes of * the *|Horn and * the *|cry of the|Hounds.||||
V:2
 x2 | x6 | x6 | x6 | x6 | x6 | x6 | x6 | x6 | x6 | x6 | x6 | B/c/d/e/ f/g/=a/b/ c'a | x6 | x6 | %15
 x6 | x6 | x6 | x6 | x6 | x6 | x6 | x6 | x6 | x6 | x6 | x6 | x6 | x6 | x6 | x6 | x6 | x6 | x6 | %34
 x6 | x7 | x6 | x6 | x6 | EGBegb | x6 | x6 | x4 |] %43

